X: 282
T: The Tweedale Club
%R: hornpipe, reel
Z: 2014 John Chambers <jc:trillian.mit.edu>
B: Preston "Twenty four Country Dances for the Year 1796" p.121 #2
F: http://www.vwml.org/browse/browse-collections-dance-tune-books/browse-prestons1796# 2014-8-10
N: Fixed length of last note (c) in 1st ending of 2nd strain.
M: C|
L: 1/8
K: C
c |\
G<Ec>A A>GEc | GEcE dDDc |\
[1 GEcG ABcA | GeEc D2C :|\
[2 GEcG ABca | gcfe d2c |]
|: e/f/ |\
gcg>e cgeg | ada>f d>efa |\
[1 gcg>e cgeg | ((3fgf) ((3efe) d2c :|\
[2 geaf ecBG | AcEc D2C |]
% - - - - - - - - - - - - - - - - - - - - - - - - -
%%begintext align
%% Sett & hands 3 round with the 2d Lady .|
%% Sett & hands 3 round with the 2d Gent: :|
%% cross over one Cu: & turn :|. Right & Left :|:
%%endtext
% - - - - - - - - - - - - - - - - - - - - - - - - -

%%sep 1 1 500
%%sep 1 1 500
